logos/miro-logo.svg

<svg width="400" height="124" fill="none" xmlns="http://www.w3.org/2000/svg">
	<path d="M104 0H20C8.954 0 0 8.954 0 20v84c0 11.046 8.954 20 20 20h84c11.046 0 20-8.954 20-20V20c0-11.046-8.954-20-20-20Z" fill="#FFD02F"/>
	<path fill-rule="evenodd" clip-rule="evenodd" d="M84 20H72l10 18-22-18H48l11 22-23-22H24l12 28-12 56h12l23-60-11 60h12l22-64-10 64h12l22-70-22-14Z" fill="#050038"/>
	<path fill-rule="evenodd" clip-rule="evenodd" d="M368 28c20 0 32 14.93 32 34 0 19-12 34-32 34s-32-14.93-32-34 12-34 32-34Zm-90 4v62h-14V34l14-2Zm52-2v14l-8 1c-7 1-12 5-12 12.96V94h-14V57.96C296 40.84 306 33 322 31l8-1Zm-140 0c6 0 12.204 2.48 16 8 3.81-5.027 10-8 18-8 10 0 22 6 22 26v38h-14V56c0-7-4.36-12-11-12s-11 5-11 12v38h-14V56c0-7-4.361-12-11-12-6.758 0-11 5-11 12v38h-14V34l14-2v6c3.912-4.81 8-8 16-8Zm178 12c-12 0-18 8.956-18 20s6 20 18 20 18-9 18-20c0-11.03-6-20-18-20ZM271 6c5 0 9 3 9 9s-4 9-9 9-9-3-9-9 4-9 9-9Z" fill="#050038"/>
</svg>

<svg width="400" height="124" viewBox="0 0 400 124" fill="none" xmlns="http://www.w3.org/2000/svg">
<path d="M104 0H20C8.9543 0 0 8.9543 0 20V104C0 115.046 8.9543 124 20 124H104C115.046 124 124 115.046 124 104V20C124 8.9543 115.046 0 104 0Z" fill="#FFD02F"/>
<path fill-rule="evenodd" clip-rule="evenodd" d="M84 20H72L82 38L60 20H48L59 42L36 20H24L36 48L24 104H36L59 44L48 104H60L82 40L72 104H84L106 34L84 20Z" fill="#050038"/>
<path fill-rule="evenodd" clip-rule="evenodd" d="M368 28C388 28 400 42.9295 400 62C400 81 388 96 368 96C348 96 336 81.0705 336 62C336 42.9295 348 28 368 28ZM278 32V94H264V64V49V34L278 32ZM330 30V44L322 45C315 46 310 50 310 57.9598V94H296V57.9598C296 40.8401 306 33 322 31L330 30ZM190 30C196 30 202.204 32.4795 206 38C209.81 32.9728 216 30 224 30C234 30 246 36 246 56V94H232V56C232 49 227.64 44 221 44C214.36 44 210 49 210 56V94H196V56C196 49 191.639 44 185 44C178.242 44 174 49 174 56V94H160V56V34L174 32V38C177.912 33.1905 182 30 190 30ZM368 42C356 42 350 50.9562 350 62C350 73.0439 356 82 368 82C380 82 386 73 386 62C386 50.97 380 42 368 42ZM271 6C276 6 280 9 280 15C280 21 276 24 271 24C266 24 262 21 262 15C262 8.99997 266 6 271 6Z" fill="#050038"/>
</svg>
